src/icons/www.svg

<?xml version="1.0" encoding="UTF-8"?>
<svg xmlns="http://www.w3.org/2000/svg" xmlns:xlink="http://www.w3.org/1999/xlink" width="32" height="32" viewBox="0 0 32 32" version="1.1">
<g id="surface1">
<path style=" stroke:none;fill-rule:nonzero;fill:rgb(20.392157%,59.607846%,85.882354%);fill-opacity:1;" d="M 16 2.800781 C 10.410156 2.800781 5.644531 6.289062 3.722656 11.199219 L 3.601562 11.199219 C 2.941406 11.199219 2.398438 11.742188 2.398438 12.398438 L 2.398438 19.601562 C 2.398438 20.257812 2.941406 20.800781 3.601562 20.800781 L 3.722656 20.800781 C 5.644531 25.710938 10.410156 29.199219 16 29.199219 C 21.589844 29.199219 26.355469 25.710938 28.277344 20.800781 L 28.398438 20.800781 C 29.058594 20.800781 29.601562 20.257812 29.601562 19.601562 L 29.601562 12.398438 C 29.601562 11.742188 29.058594 11.199219 28.398438 11.199219 L 28.277344 11.199219 C 26.355469 6.289062 21.589844 2.800781 16 2.800781 Z M 16 3.601562 C 15.78125 3.601562 15.601562 3.78125 15.601562 4 C 15.601562 4.21875 15.78125 4.398438 16 4.398438 C 16.21875 4.398438 16.398438 4.21875 16.398438 4 C 16.398438 3.792969 16.238281 3.617188 16.03125 3.601562 C 21.164062 3.613281 25.539062 6.75 27.414062 11.199219 L 4.585938 11.199219 C 6.460938 6.742188 10.851562 3.601562 16 3.601562 Z M 13.199219 4 C 12.980469 4 12.800781 4.179688 12.800781 4.398438 C 12.800781 4.621094 12.980469 4.800781 13.199219 4.800781 C 13.421875 4.800781 13.601562 4.621094 13.601562 4.398438 C 13.601562 4.179688 13.421875 4 13.199219 4 Z M 18.800781 4 C 18.578125 4 18.398438 4.179688 18.398438 4.398438 C 18.398438 4.621094 18.578125 4.800781 18.800781 4.800781 C 19.019531 4.800781 19.199219 4.621094 19.199219 4.398438 C 19.199219 4.179688 19.019531 4 18.800781 4 Z M 12 5.199219 C 11.78125 5.199219 11.601562 5.378906 11.601562 5.601562 C 11.601562 5.820312 11.78125 6 12 6 C 12.21875 6 12.398438 5.820312 12.398438 5.601562 C 12.398438 5.378906 12.21875 5.199219 12 5.199219 Z M 16 5.199219 C 15.78125 5.199219 15.601562 5.378906 15.601562 5.601562 C 15.601562 5.820312 15.78125 6 16 6 C 16.21875 6 16.398438 5.820312 16.398438 5.601562 C 16.398438 5.378906 16.21875 5.199219 16 5.199219 Z M 20 5.199219 C 19.78125 5.199219 19.601562 5.378906 19.601562 5.601562 C 19.601562 5.820312 19.78125 6 20 6 C 20.21875 6 20.398438 5.820312 20.398438 5.601562 C 20.398438 5.378906 20.21875 5.199219 20 5.199219 Z M 8 6.800781 C 7.78125 6.800781 7.601562 6.980469 7.601562 7.199219 C 7.601562 7.421875 7.78125 7.601562 8 7.601562 C 8.21875 7.601562 8.398438 7.421875 8.398438 7.199219 C 8.398438 6.980469 8.21875 6.800781 8 6.800781 Z M 9.601562 6.800781 C 9.378906 6.800781 9.199219 6.980469 9.199219 7.199219 C 9.199219 7.421875 9.378906 7.601562 9.601562 7.601562 C 9.820312 7.601562 10 7.421875 10 7.199219 C 10 6.980469 9.820312 6.800781 9.601562 6.800781 Z M 11.199219 6.800781 C 10.980469 6.800781 10.800781 6.980469 10.800781 7.199219 C 10.800781 7.421875 10.980469 7.601562 11.199219 7.601562 C 11.421875 7.601562 11.601562 7.421875 11.601562 7.199219 C 11.601562 6.980469 11.421875 6.800781 11.199219 6.800781 Z M 12.800781 6.800781 C 12.578125 6.800781 12.398438 6.980469 12.398438 7.199219 C 12.398438 7.421875 12.578125 7.601562 12.800781 7.601562 C 13.019531 7.601562 13.199219 7.421875 13.199219 7.199219 C 13.199219 6.980469 13.019531 6.800781 12.800781 6.800781 Z M 14.398438 6.800781 C 14.179688 6.800781 14 6.980469 14 7.199219 C 14 7.421875 14.179688 7.601562 14.398438 7.601562 C 14.621094 7.601562 14.800781 7.421875 14.800781 7.199219 C 14.800781 6.980469 14.621094 6.800781 14.398438 6.800781 Z M 16 6.800781 C 15.789062 6.800781 15.617188 6.960938 15.601562 7.171875 C 15.601562 7.179688 15.601562 7.191406 15.601562 7.199219 C 15.601562 7.410156 15.761719 7.585938 15.972656 7.601562 C 15.980469 7.601562 15.992188 7.601562 16 7.601562 C 16.21875 7.601562 16.398438 7.421875 16.398438 7.199219 C 16.398438 6.980469 16.21875 6.800781 16 6.800781 Z M 17.601562 6.800781 C 17.378906 6.800781 17.199219 6.980469 17.199219 7.199219 C 17.199219 7.421875 17.378906 7.601562 17.601562 7.601562 C 17.820312 7.601562 18 7.421875 18 7.199219 C 18 6.980469 17.820312 6.800781 17.601562 6.800781 Z M 19.199219 6.800781 C 18.980469 6.800781 18.800781 6.980469 18.800781 7.199219 C 18.800781 7.421875 18.980469 7.601562 19.199219 7.601562 C 19.421875 7.601562 19.601562 7.421875 19.601562 7.199219 C 19.601562 6.980469 19.421875 6.800781 19.199219 6.800781 Z M 20.800781 6.800781 C 20.578125 6.800781 20.398438 6.980469 20.398438 7.199219 C 20.398438 7.421875 20.578125 7.601562 20.800781 7.601562 C 21.019531 7.601562 21.199219 7.421875 21.199219 7.199219 C 21.199219 6.980469 21.019531 6.800781 20.800781 6.800781 Z M 22.398438 6.800781 C 22.179688 6.800781 22 6.980469 22 7.199219 C 22 7.421875 22.179688 7.601562 22.398438 7.601562 C 22.621094 7.601562 22.800781 7.421875 22.800781 7.199219 C 22.800781 6.980469 22.621094 6.800781 22.398438 6.800781 Z M 24 6.800781 C 23.78125 6.800781 23.601562 6.980469 23.601562 7.199219 C 23.601562 7.421875 23.78125 7.601562 24 7.601562 C 24.21875 7.601562 24.398438 7.421875 24.398438 7.199219 C 24.398438 6.980469 24.21875 6.800781 24 6.800781 Z M 10.398438 8.398438 C 10.179688 8.398438 10 8.578125 10 8.800781 C 10 9.019531 10.179688 9.199219 10.398438 9.199219 C 10.621094 9.199219 10.800781 9.019531 10.800781 8.800781 C 10.800781 8.578125 10.621094 8.398438 10.398438 8.398438 Z M 16 8.398438 C 15.78125 8.398438 15.601562 8.578125 15.601562 8.800781 C 15.601562 9.019531 15.78125 9.199219 16 9.199219 C 16.21875 9.199219 16.398438 9.019531 16.398438 8.800781 C 16.398438 8.578125 16.21875 8.398438 16 8.398438 Z M 21.601562 8.398438 C 21.378906 8.398438 21.199219 8.578125 21.199219 8.800781 C 21.199219 9.019531 21.378906 9.199219 21.601562 9.199219 C 21.820312 9.199219 22 9.019531 22 8.800781 C 22 8.578125 21.820312 8.398438 21.601562 8.398438 Z M 10 10 C 9.78125 10 9.601562 10.179688 9.601562 10.398438 C 9.601562 10.621094 9.78125 10.800781 10 10.800781 C 10.21875 10.800781 10.398438 10.621094 10.398438 10.398438 C 10.398438 10.179688 10.21875 10 10 10 Z M 16 10 C 15.78125 10 15.601562 10.179688 15.601562 10.398438 C 15.601562 10.621094 15.78125 10.800781 16 10.800781 C 16.21875 10.800781 16.398438 10.621094 16.398438 10.398438 C 16.398438 10.179688 16.21875 10 16 10 Z M 22 10 C 21.78125 10 21.601562 10.179688 21.601562 10.398438 C 21.601562 10.621094 21.78125 10.800781 22 10.800781 C 22.21875 10.800781 22.398438 10.621094 22.398438 10.398438 C 22.398438 10.179688 22.21875 10 22 10 Z M 3.601562 12 L 28.398438 12 C 28.625 12 28.800781 12.171875 28.800781 12.398438 L 28.800781 19.601562 C 28.800781 19.828125 28.625 20 28.398438 20 L 3.601562 20 C 3.375 20 3.199219 19.828125 3.199219 19.601562 L 3.199219 12.398438 C 3.199219 12.171875 3.375 12 3.601562 12 Z M 6 14 L 7.203125 18 L 7.957031 18 L 8.863281 15.167969 L 8.90625 15.167969 L 9.820312 18 L 10.570312 18 L 11.773438 14 L 10.945312 14 L 10.179688 16.976562 L 10.132812 16.976562 L 9.242188 14 L 8.53125 14 L 7.648438 16.976562 L 7.601562 16.976562 L 6.835938 14 Z M 13.113281 14 L 14.3125 18 L 15.070312 18 L 15.976562 15.167969 L 16.023438 15.167969 L 16.933594 18 L 17.6875 18 L 18.886719 14 L 18.058594 14 L 17.292969 16.976562 L 17.25 16.976562 L 16.355469 14 L 15.644531 14 L 14.761719 16.976562 L 14.714844 16.976562 L 13.949219 14 Z M 20.226562 14 L 21.429688 18 L 22.179688 18 L 23.089844 15.167969 L 23.136719 15.167969 L 24.046875 18 L 24.796875 18 L 26 14 L 25.171875 14 L 24.40625 16.976562 L 24.363281 16.976562 L 23.46875 14 L 22.757812 14 L 21.875 16.976562 L 21.828125 16.976562 L 21.0625 14 Z M 12.398438 17.199219 C 12.179688 17.199219 12 17.378906 12 17.601562 C 12 17.820312 12.179688 18 12.398438 18 C 12.621094 18 12.800781 17.820312 12.800781 17.601562 C 12.800781 17.378906 12.621094 17.199219 12.398438 17.199219 Z M 19.601562 17.199219 C 19.378906 17.199219 19.199219 17.378906 19.199219 17.601562 C 19.199219 17.820312 19.378906 18 19.601562 18 C 19.820312 18 20 17.820312 20 17.601562 C 20 17.378906 19.820312 17.199219 19.601562 17.199219 Z M 4.585938 20.800781 L 27.414062 20.800781 C 25.539062 25.257812 21.148438 28.398438 16 28.398438 C 16.21875 28.398438 16.398438 28.21875 16.398438 28 C 16.398438 27.78125 16.21875 27.601562 16 27.601562 C 15.78125 27.601562 15.601562 27.78125 15.601562 28 C 15.601562 28.207031 15.761719 28.382812 15.96875 28.398438 C 10.835938 28.386719 6.460938 25.25 4.585938 20.800781 Z M 10 21.199219 C 9.78125 21.199219 9.601562 21.378906 9.601562 21.601562 C 9.601562 21.820312 9.78125 22 10 22 C 10.21875 22 10.398438 21.820312 10.398438 21.601562 C 10.398438 21.378906 10.21875 21.199219 10 21.199219 Z M 16 21.199219 C 15.78125 21.199219 15.601562 21.378906 15.601562 21.601562 C 15.601562 21.820312 15.78125 22 16 22 C 16.21875 22 16.398438 21.820312 16.398438 21.601562 C 16.398438 21.378906 16.21875 21.199219 16 21.199219 Z M 22 21.199219 C 21.78125 21.199219 21.601562 21.378906 21.601562 21.601562 C 21.601562 21.820312 21.78125 22 22 22 C 22.21875 22 22.398438 21.820312 22.398438 21.601562 C 22.398438 21.378906 22.21875 21.199219 22 21.199219 Z M 10.398438 22.800781 C 10.179688 22.800781 10 22.980469 10 23.199219 C 10 23.421875 10.179688 23.601562 10.398438 23.601562 C 10.621094 23.601562 10.800781 23.421875 10.800781 23.199219 C 10.800781 22.980469 10.621094 22.800781 10.398438 22.800781 Z M 16 22.800781 C 15.78125 22.800781 15.601562 22.980469 15.601562 23.199219 C 15.601562 23.421875 15.78125 23.601562 16 23.601562 C 16.21875 23.601562 16.398438 23.421875 16.398438 23.199219 C 16.398438 22.980469 16.21875 22.800781 16 22.800781 Z M 21.601562 22.800781 C 21.378906 22.800781 21.199219 22.980469 21.199219 23.199219 C 21.199219 23.421875 21.378906 23.601562 21.601562 23.601562 C 21.820312 23.601562 22 23.421875 22 23.199219 C 22 22.980469 21.820312 22.800781 21.601562 22.800781 Z M 8 24.398438 C 7.78125 24.398438 7.601562 24.578125 7.601562 24.800781 C 7.601562 25.019531 7.78125 25.199219 8 25.199219 C 8.21875 25.199219 8.398438 25.019531 8.398438 24.800781 C 8.398438 24.578125 8.21875 24.398438 8 24.398438 Z M 9.601562 24.398438 C 9.378906 24.398438 9.199219 24.578125 9.199219 24.800781 C 9.199219 25.019531 9.378906 25.199219 9.601562 25.199219 C 9.820312 25.199219 10 25.019531 10 24.800781 C 10 24.578125 9.820312 24.398438 9.601562 24.398438 Z M 11.199219 24.398438 C 10.980469 24.398438 10.800781 24.578125 10.800781 24.800781 C 10.800781 25.019531 10.980469 25.199219 11.199219 25.199219 C 11.421875 25.199219 11.601562 25.019531 11.601562 24.800781 C 11.601562 24.578125 11.421875 24.398438 11.199219 24.398438 Z M 12.800781 24.398438 C 12.578125 24.398438 12.398438 24.578125 12.398438 24.800781 C 12.398438 25.019531 12.578125 25.199219 12.800781 25.199219 C 13.019531 25.199219 13.199219 25.019531 13.199219 24.800781 C 13.199219 24.578125 13.019531 24.398438 12.800781 24.398438 Z M 14.398438 24.398438 C 14.179688 24.398438 14 24.578125 14 24.800781 C 14 25.019531 14.179688 25.199219 14.398438 25.199219 C 14.621094 25.199219 14.800781 25.019531 14.800781 24.800781 C 14.800781 24.578125 14.621094 24.398438 14.398438 24.398438 Z M 16 24.398438 C 15.789062 24.398438 15.617188 24.5625 15.601562 24.773438 C 15.601562 24.78125 15.601562 24.789062 15.601562 24.800781 C 15.601562 25.007812 15.761719 25.183594 15.972656 25.199219 C 15.980469 25.199219 15.992188 25.199219 16 25.199219 C 16.21875 25.199219 16.398438 25.019531 16.398438 24.800781 C 16.398438 24.578125 16.21875 24.398438 16 24.398438 Z M 17.601562 24.398438 C 17.378906 24.398438 17.199219 24.578125 17.199219 24.800781 C 17.199219 25.019531 17.378906 25.199219 17.601562 25.199219 C 17.820312 25.199219 18 25.019531 18 24.800781 C 18 24.578125 17.820312 24.398438 17.601562 24.398438 Z M 19.199219 24.398438 C 18.980469 24.398438 18.800781 24.578125 18.800781 24.800781 C 18.800781 25.019531 18.980469 25.199219 19.199219 25.199219 C 19.421875 25.199219 19.601562 25.019531 19.601562 24.800781 C 19.601562 24.578125 19.421875 24.398438 19.199219 24.398438 Z M 20.800781 24.398438 C 20.578125 24.398438 20.398438 24.578125 20.398438 24.800781 C 20.398438 25.019531 20.578125 25.199219 20.800781 25.199219 C 21.019531 25.199219 21.199219 25.019531 21.199219 24.800781 C 21.199219 24.578125 21.019531 24.398438 20.800781 24.398438 Z M 22.398438 24.398438 C 22.179688 24.398438 22 24.578125 22 24.800781 C 22 25.019531 22.179688 25.199219 22.398438 25.199219 C 22.621094 25.199219 22.800781 25.019531 22.800781 24.800781 C 22.800781 24.578125 22.621094 24.398438 22.398438 24.398438 Z M 24 24.398438 C 23.78125 24.398438 23.601562 24.578125 23.601562 24.800781 C 23.601562 25.019531 23.78125 25.199219 24 25.199219 C 24.21875 25.199219 24.398438 25.019531 24.398438 24.800781 C 24.398438 24.578125 24.21875 24.398438 24 24.398438 Z M 12 26 C 11.78125 26 11.601562 26.179688 11.601562 26.398438 C 11.601562 26.621094 11.78125 26.800781 12 26.800781 C 12.21875 26.800781 12.398438 26.621094 12.398438 26.398438 C 12.398438 26.179688 12.21875 26 12 26 Z M 16 26 C 15.78125 26 15.601562 26.179688 15.601562 26.398438 C 15.601562 26.621094 15.78125 26.800781 16 26.800781 C 16.21875 26.800781 16.398438 26.621094 16.398438 26.398438 C 16.398438 26.179688 16.21875 26 16 26 Z M 20 26 C 19.78125 26 19.601562 26.179688 19.601562 26.398438 C 19.601562 26.621094 19.78125 26.800781 20 26.800781 C 20.21875 26.800781 20.398438 26.621094 20.398438 26.398438 C 20.398438 26.179688 20.21875 26 20 26 Z M 13.199219 27.199219 C 12.980469 27.199219 12.800781 27.378906 12.800781 27.601562 C 12.800781 27.820312 12.980469 28 13.199219 28 C 13.421875 28 13.601562 27.820312 13.601562 27.601562 C 13.601562 27.378906 13.421875 27.199219 13.199219 27.199219 Z M 18.800781 27.199219 C 18.578125 27.199219 18.398438 27.378906 18.398438 27.601562 C 18.398438 27.820312 18.578125 28 18.800781 28 C 19.019531 28 19.199219 27.820312 19.199219 27.601562 C 19.199219 27.378906 19.019531 27.199219 18.800781 27.199219 Z M 18.800781 27.199219 "/>
</g>
</svg>

<svg role="img" viewBox="0 0 32 32" xmlns="http://www.w3.org/2000/svg"><path d="M16 2.8c-5.59 0-10.355 3.49-12.277 8.4h-.121c-.66 0-1.204.542-1.204 1.198v7.204c0 .656.543 1.199 1.204 1.199h.12C5.646 25.71 10.41 29.199 16 29.199c5.59 0 10.355-3.488 12.277-8.398h.121c.66 0 1.204-.543 1.204-1.2v-7.203c0-.656-.543-1.199-1.204-1.199h-.12C26.354 6.29 21.59 2.801 16 2.801m0 .802a.4.4 0 0 0-.398.398.4.4 0 0 0 .398.398.4.4 0 0 0 .031-.796c5.133.011 9.508 3.148 11.383 7.597H4.586C6.46 6.742 10.852 3.602 16 3.602M13.2 4a.4.4 0 1 0 .003.8.4.4 0 0 0-.004-.8m5.6 0a.401.401 0 1 0-.002.802A.401.401 0 0 0 18.8 4M12 5.2a.401.401 0 0 0 0 .8.4.4 0 0 0 0-.8m4 0a.401.401 0 0 0 0 .8.4.4 0 0 0 0-.8m4 0a.401.401 0 0 0 0 .8.4.4 0 0 0 0-.8M8 6.8a.4.4 0 0 0 0 .802.401.401 0 0 0 0-.801m1.602 0a.401.401 0 1 0-.003.803.401.401 0 0 0 .003-.802m1.597 0a.4.4 0 1 0 .004.801.4.4 0 0 0-.004-.8m1.602 0a.401.401 0 1 0-.003.803.401.401 0 0 0 .003-.802m1.597 0a.4.4 0 1 0 .004.801.4.4 0 0 0-.004-.8M16 6.8c-.21 0-.383.16-.398.372v.027c0 .211.16.387.37.403H16a.401.401 0 0 0 0-.801m1.602 0a.401.401 0 1 0-.003.803.401.401 0 0 0 .003-.802m1.597 0a.4.4 0 1 0 .004.801.4.4 0 0 0-.004-.8m1.602 0a.401.401 0 1 0-.003.803.401.401 0 0 0 .003-.802m1.597 0a.4.4 0 1 0 .004.801.4.4 0 0 0-.004-.8M24 6.8a.4.4 0 0 0 0 .802.401.401 0 0 0 0-.801M10.398 8.399a.401.401 0 1 0 .005.802.401.401 0 0 0-.005-.802m5.602 0a.401.401 0 0 0 0 .801.4.4 0 0 0 0-.8m5.602 0a.401.401 0 1 0-.003.8.401.401 0 0 0 .003-.8M10 10a.4.4 0 0 0 0 .8.401.401 0 0 0 0-.8m6 0a.4.4 0 0 0 0 .8.401.401 0 0 0 0-.8m6 0a.4.4 0 0 0 0 .8.401.401 0 0 0 0-.8M3.602 12h24.796c.227 0 .403.172.403.398v7.204a.394.394 0 0 1-.403.398H3.602a.394.394 0 0 1-.403-.398v-7.204c0-.226.176-.398.403-.398M6 14l1.203 4h.754l.906-2.832h.043L9.82 18h.75l1.203-4h-.828l-.765 2.977h-.047L9.243 14H8.53l-.883 2.977h-.046L6.836 14Zm7.113 0 1.2 4h.757l.907-2.832h.046l.91 2.832h.755l1.199-4h-.828l-.766 2.977h-.043L16.355 14h-.71l-.883 2.977h-.047L13.949 14Zm7.114 0 1.203 4h.75l.91-2.832h.047l.91 2.832h.75L26 14h-.828l-.766 2.977h-.043L23.47 14h-.711l-.883 2.977h-.047L21.063 14Zm-7.829 3.2a.401.401 0 1 0 .005.801.401.401 0 0 0-.005-.802m7.204 0a.401.401 0 1 0-.003.8.401.401 0 0 0 .003-.8M4.586 20.8h22.828C25.54 25.259 21.148 28.399 16 28.399a.4.4 0 0 0 .398-.398.4.4 0 0 0-.398-.398.4.4 0 0 0-.031.796c-5.133-.011-9.508-3.148-11.383-7.597m5.414.4a.401.401 0 0 0 0 .8.4.4 0 0 0 0-.8m6 0a.401.401 0 0 0 0 .8.4.4 0 0 0 0-.8m6 0a.401.401 0 0 0 0 .8.4.4 0 0 0 0-.8m-11.602 1.6a.4.4 0 1 0 .004.801.4.4 0 0 0-.004-.8m5.602 0a.4.4 0 0 0 0 .802.401.401 0 0 0 0-.801m5.602 0a.401.401 0 1 0-.003.803.401.401 0 0 0 .003-.802M8 24.399a.401.401 0 0 0 0 .801.4.4 0 0 0 0-.8m1.602 0a.401.401 0 1 0-.003.8.401.401 0 0 0 .003-.8m1.597 0a.401.401 0 1 0 .005.802.401.401 0 0 0-.005-.802m1.602 0a.401.401 0 1 0-.003.8.401.401 0 0 0 .003-.8m1.597 0a.401.401 0 1 0 .005.802.401.401 0 0 0-.005-.802m1.602 0a.401.401 0 0 0-.398.375v.028a.4.4 0 0 0 .37.398H16a.4.4 0 0 0 0-.8m1.602 0a.401.401 0 1 0-.003.8.401.401 0 0 0 .003-.8m1.597 0a.401.401 0 1 0 .005.802.401.401 0 0 0-.005-.802m1.602 0a.401.401 0 1 0-.003.8.401.401 0 0 0 .003-.8m1.597 0a.401.401 0 1 0 .005.802.401.401 0 0 0-.005-.802m1.602 0a.401.401 0 0 0 0 .801.4.4 0 0 0 0-.8M12 26a.4.4 0 0 0 0 .8.401.401 0 0 0 0-.8m4 0a.4.4 0 0 0 0 .8.401.401 0 0 0 0-.8m4 0a.4.4 0 0 0 0 .8.401.401 0 0 0 0-.8m-6.8 1.2a.401.401 0 1 0 .004.801.401.401 0 0 0-.005-.802m5.6 0a.401.401 0 1 0-.003.8.401.401 0 0 0 .004-.8m0 0" style="stroke:none;fill-rule:nonzero;fill:rgb(20.392157%,59.607846%,85.882354%);fill-opacity:1"/></svg>
